assets/images/cloud-upload.svg

<svg width="23" height="16" viewBox="0 0 23 16" fill="none" xmlns="http://www.w3.org/2000/svg">
<path d="M19.4644 6.03571C19.3215 3.96429 17.6072 2.28571 15.5001 2.28571C15.2144 2.28571 14.9287 2.32143 14.6787 2.39286C13.5358 0.964286 11.7858 0 9.78582 0C6.7501 0 4.21439 2.14286 3.60725 5C1.46439 5.89286 0.0715332 7.96429 0.0715332 10.2857C0.0715332 13.4643 2.60725 16 5.78582 16H17.7858C20.6072 16 22.9287 13.7143 22.9287 10.8571C22.9287 8.67857 21.5001 6.75 19.4644 6.03571ZM17.7858 14.2857H5.78582C3.57153 14.2857 1.78582 12.5 1.78582 10.2857C1.78582 8.28571 3.2501 6.60714 5.21439 6.35714V6.28571C5.21439 3.78571 7.2501 1.71429 9.78582 1.71429C11.6787 1.71429 13.3215 2.89286 14.0001 4.57143C14.393 4.21429 14.9287 4 15.5001 4C16.7501 4 17.7858 5.03571 17.7858 6.28571C17.7858 6.71429 17.643 7.10714 17.4644 7.46429C17.5715 7.46429 17.6787 7.42857 17.7858 7.42857C19.6787 7.42857 21.2144 8.96429 21.2144 10.8571C21.2144 12.75 19.6787 14.2857 17.7858 14.2857ZM10.643 4.25C10.4644 4.07143 10.2144 4.07143 10.0358 4.25L6.32153 7.96429C6.14296 8.14286 6.14296 8.39286 6.32153 8.57143L6.92868 9.17857C7.10725 9.35714 7.35725 9.35714 7.53582 9.17857L9.5001 7.17857V12.1429C9.5001 12.3929 9.67868 12.5714 9.92868 12.5714H10.7858C11.0001 12.5714 11.2144 12.3929 11.2144 12.1429V7.17857L13.143 9.17857C13.3215 9.35714 13.5715 9.35714 13.7501 9.17857L14.3572 8.57143C14.5358 8.39286 14.5358 8.14286 14.3572 7.96429L10.643 4.25Z" fill="#50575E"/>
</svg>

<svg width="23" height="16" fill="none" xmlns="http://www.w3.org/2000/svg"><path d="M19.464 6.036c-.142-2.072-1.857-3.75-3.964-3.75-.286 0-.571.035-.821.107C13.536.964 11.786 0 9.786 0a6.32 6.32 0 00-6.179 5 5.717 5.717 0 00-3.535 5.286A5.686 5.686 0 005.786 16h12a5.144 5.144 0 005.143-5.143c0-2.178-1.429-4.107-3.465-4.821zm-1.678 8.25h-12c-2.214 0-4-1.786-4-4 0-2 1.464-3.679 3.428-3.929v-.071c0-2.5 2.036-4.572 4.572-4.572 1.893 0 3.536 1.179 4.214 2.857A2.236 2.236 0 0115.5 4a2.302 2.302 0 012.286 2.286c0 .428-.143.821-.322 1.178.108 0 .215-.035.322-.035a3.43 3.43 0 010 6.857zM10.643 4.25a.411.411 0 00-.607 0L6.322 7.964a.411.411 0 000 .607l.607.608a.411.411 0 00.607 0l1.964-2v4.964c0 .25.179.428.429.428h.857a.434.434 0 00.428-.428V7.179l1.929 2a.411.411 0 00.607 0l.607-.608a.411.411 0 000-.607L10.643 4.25z" fill="#50575E"/></svg>
